packages/design-assets/icons/16px/Performance.svg

<?xml version="1.0" encoding="UTF-8"?>
<svg width="16px" height="16px" viewBox="0 0 16 16" version="1.1" xmlns="http://www.w3.org/2000/svg" xmlns:xlink="http://www.w3.org/1999/xlink">
    <!-- Generator: Sketch 54.1 (76490) - https://sketchapp.com -->
    <title>Icons/16px/Performance</title>
    <desc>Created with Sketch.</desc>
    <g id="Icons/16px/Performance" stroke="none" stroke-width="1" fill="none" fill-rule="evenodd">
        <path d="M2.0216,6.96001882 L0.321232941,6.15211294 L0.725185882,5.30192941 C1.96690824,2.68842353 4.63786353,1 7.52941176,1 C10.4182024,1 13.0877741,2.68611765 14.3304188,5.29595294 L14.7348329,6.14567529 L13.0353882,6.95496471 L12.6309741,6.10478118 C11.6989929,4.14752 9.69623529,2.88235294 7.52941176,2.88235294 C5.36029176,2.88235294 3.35707294,4.14935529 2.42555294,6.10983529 L2.0216,6.96001882 Z M4.82745412,14.0548988 C4.37479529,12.5626447 5.34380235,6.03008 5.34380235,6.03008 C5.34380235,6.03008 9.77871059,10.9234447 10.2313694,12.4156894 C10.6840282,13.9079341 9.84127059,15.4845929 8.34901647,15.9372518 C6.85676235,16.3899106 5.28011294,15.5471435 4.82745412,14.0548988 Z" id="i-16-performance" fill="#818F99"></path>
    </g>
</svg>

<svg width="16" height="16" xmlns="http://www.w3.org/2000/svg"><path d="M2.022 6.96l-1.7-.808.403-.85A7.569 7.569 0 0 1 7.53 1a7.569 7.569 0 0 1 6.801 4.296l.405.85-1.7.809-.404-.85a5.678 5.678 0 0 0-5.102-3.223A5.678 5.678 0 0 0 2.426 6.11l-.404.85zm2.805 7.095c-.452-1.492.517-8.025.517-8.025s4.435 4.893 4.887 6.386a2.824 2.824 0 1 1-5.404 1.639z" fill="#818F99" fill-rule="evenodd"/></svg>
